!!!COM: Gadjibecov
!!!CDT: 1885-1948
!!!OTL: National Anthem, Azerbaijan
!!!ENC: Davis, Matthew J.
!!Vocal Line Only
**kern
*clefG2
*k[b-]
*d:
*M4/4
=1-
4dd
8.ff
16ee
(4dd
4a)
=2
4dd
8.ff
16ee
[4dd
8dd]
8r
=3
4aa
8.ff
16aa
8gg
8ff
8ee
8dd
=4
8.dd
16dd
8ff
8ee
[4dd
8dd]
8r
=5
8.dd
16aa
8aa
8aa
8aa
8ccc
8bb-
8aa
=6
8.gg
16gg
8ff
8gg
2aa
=7
8.aa
16bb-
8ccc
8aa
8ddd
8ccc
8bb-
8aa
=8
8.gg
16gg
8ff
8gg
2aa
=9
4aa
8.ff
16aa
8gg
8ff
8ee
8dd
=10
4dd
8.ff
16ff
[4dd
8dd]
8r
=11
4aa
8.ff
16aa
8gg
8ff
8ee
8dd
=12
4dd
8.ff
16ee
[4dd
8dd]
8r
=13
8a
8dd
8dd
8dd
8a
8dd
8dd
8dd
=14
8a
8dd
8dd
8dd
8a
8dd
8dd
8dd
=15
8b-
8dd
8dd
8dd
8b-
8dd
8dd
8dd
=16
8bn
8dd
8dd
8dd
8bn
8dd
8dd
8dd
=17
8r
16aa
16bb-
(16aa
16bb-)
8gg
8aa
8gg
4ff
=18
8r
16gg
16aa
(16gg
16aa)
8ff
8gg
8ff
4ee
=19
8r
16ff
16gg
(16ff
16gg)
8ee
8ff
8ee
4dd
=20
8r
16ee
16ff
8ee
8dd
8.ee
16cc#
4dd
=21
!Measures 21-24 are encased in repeat signs and are thus encoded fully written out (with the original measure numbers)
4dd
4ff
4ee
4dd
=22
4dd
8.cc#
16dd
2ee
=23
!Measures 23-24 contain the first ending
4ee
4gg
4ff
4ee
=24
4dd
8.dd
16cc#
2dd
!(Begin realization of the repeat)
=21
!Measures 21-24 are encased in repeat signs and are thus encoded fully written out (with the original measure numbers)
4dd
4ff
4ee
4dd
=22
4dd
8.cc#
16dd
2ee
=25
!Measures 25-x contains the second ending
4ee
4gg
4ff
4ee
=26
4dd
(8.dd
16cc#)
2dd
=27
4aa
8.aa
16gg
4aa
4r
=28
4aa
8.aa
16gg
4aa
4r
=29
4dd
8ff
8ee
2dd
=30
4dd
8ff
8ee
2dd
=31
4dd
8ff
8ee
2dd
=32
4dd
8ff
8ee
[2dd
=33
1dd
=34
8dd]
8r
4r
2r
==|!
*-
